X:1
T:Con qué la lavaré
T:Con qué la lavaré
T:Cancionero de Uppsala - Anonyme XVIéme siècle
%%score [ 1 2 3 4 ]
L:1/8
Q:1/2=50
M:2/2
K:G
V:1 treble nm="Soprano" snm="S."
V:2 treble nm="Alto" snm="A."
V:3 treble-8 nm="Tenor" snm="T."
V:4 bass nm="Bass" snm="B."
V:1
 z8 | z8 | z4 E4 | G3 G A2 A2 | B4 z2 B2 | e4 e2 d2- | d2 B2 c4 | B8 |"^A" z2 B2 d2 d2 | B2 B2 G4 | %10
w: ||Con|qué la la- va-|ré la|flor de la|* mi ca-|ra?|Con qué la|la- va- ré,|
 z2 E2 G4 | G2 A4 G2 | F4 E4 |"^B" z6 B2 | d2 d2 B2 B2 | G4 z2 E2 | G4 G2 A2- | A2 G2 F4 | E8 || %19
w: que vi-|vo mal pe-|na- da?|Con|qué la la- va-|ré que|vi- vo mal|* pe- na-|da?|
"^C" z8 | z8 | z8 | E4 G3 G | A2 A2 B4 | B4 z2 B2 | d3 c B2 A2- | A2 G2 F2 E2- | E2 ^D2 E4 || %28
w: |||Là- van- se|las ca- sa-|das con|a- * * gua|* de li- mo-|* * nes.|
"^D" z8 | z8 | z4 E4 | G3 G A2 A2 | B2 B2 z2 B2 | e4 e2 d2- | d2 B2 c4 | B8 |"^E" z2 B2 d2 d2 | %37
w: ||Là-|vo- me yo cui-|ta- da con|pe- nas y|* do- lo-|res.|Con qué la|
 B2 B2 G4 | z2 E2 G4 | G2 A4 G2 | F4 E4 |"^F" z6 B2 | d2 d2 B2 B2 | G4 z2 E2 | G4 G2 A2- | %45
w: la- va- ré,|que vi-|vo mal pe-|na- da?|Con|qué la la- va-|ré que|vi- vo mal|
 A2 G2[Q:1/2=40] F4 | E8 |] %47
w: * pe- na-|da?|
V:2
 z8 | z8 | B,4 C3 C | D2 D2 E4 | z2 G2 G2 F2 | E3 F GA B2 | AG G4 F2 | G4 F4 | z6 F2 | %9
w: ||Con qué la|la- va- ré|la flor de|la * * * *|* * * mi|ca- ra?|Con|
 G2 G2 E2 E2 | !breath!D2 G3 FED | FD F3 E E2- | E2 ^D2 E4 | z8 | z2 F2 G2 G2 | %15
w: qué la la- va-|ré que * * *|vi- vo mal pe- na-|* * da?||Con qué la|
 E2 E2 !breath!DD G2- | GFED E2 F2- | FE E4 ^D2 | E8 || z4 B,4 | C3 C D2 D2 | E2 G3 FE!breath!D | %22
w: la- va- ré que vi-|* * * * vo mal|* pe- na- *|da?|Là-|van- se las ca-|sa- das * * *|
 C3 B,/A,/ B,2 G2- | G2 F2 G4 | !breath!E2 D2 E2 G2 | F2 D3 E F2 | D2 E2 C4 | B,8 || z8 | z8 | %30
w: las * * ca- sa-|* * das|* con a- gua|de li- * *|mon- * *|nes.|||
 B,4 C3 C | D2 D2 E2 E2 | z2 G2 G2 F2 | E3 F GA B2 | AG G4 F2 | G4 F4 | z6 F2 | G2 G2 E2 E2 | %38
w: Là- vo- me|yo cui- ta- da|con pe- nas|y * * * *|* * * do-|lo- res;|Con|qué la la- va-|
 D2 G3 FED | FD F3 E E2- | E2 ^D2 E4 | z8 | z2 F2 G2 G2 | E2 E2 !breath!DD G2- | GFED E2 F2- | %45
w: ré que * * *|vi- vo mal pe- na-|* * da?||Con qué la|la- va- ré que vi-|* * * * vo mal|
 FE E4 ^D2 | E8 |] %47
w: * pe- na- *|da?|
V:3
 z8 | z4 E4 | G3 G A2 A2 | !breath!B2 G2 c3 c | B2 e2 !breath!e2 d2 | g4 e2 f2- | fd d4 c2 | %7
w: |Con|qué la la- va-|ré, con qué la|la- va- ré la|flor de la|* mi ca- *|
 !breath!d2 B2 d2 d2 | B2 B2 !breath!G2 d2 | d2 B2 c3 c | B2 c2 G2 c2 | B2 d3 cBA | B4 z2 B2 | %13
w: ra? Con qué la|la- va- ré, que|vi- vo mal pe-|na- * da, mal|pa- na- * * *|da? Con|
 d2 d2 B2 B2 | !breath!G2 d2 d2 B2 | c3 c B2 c2 | !breath!G2 c2 B2 d2- | d2 B2 B4- | B8 || z8 | %20
w: qué la la- va-|ré, que vi- vo|mal pe- na- *|da, mal pe- na-|* * da?|||
 z8 | E4 G3 G | A2 A2 G2 c2 | A4 !breath!G2 B2- | B2 B2 G4 | A2 B3 AFG | A2 B2 A4 | F4 E4 || z8 | %29
w: |Là- van- se|las ca- sa- *|* das con|* a- gua|de li- * * *||mo- nes.||
 z4 E4 | G3 G A2 A2 | B!breath!B G2 c3 c | B2 e2 e!breath!e d2 | g4 e2 f2- | fd d4 c2 | %35
w: Là-|vo- me yo cui-|ta- da, là- vo- me|yo cui- ta- da con|pe- nas y|* do- lo *|
 !breath!d2 B2 d2 d2 | B2 B2 !breath!G2 d2 | d2 B2 c3 c | B2 c2 !breath!G2 c2 | B2 d3 cBA | %40
w: res. Con que la|la- va- ré, que|vi- vo mal pe-|na * da, mal|pe- na * * *|
 B4 z2 B2 | d2 d2 B2 B2 | !breath!G2 d2 d2 B2 | c3 c B2 c2 | !breath!G2 c2 B2 d2- | d2 B2 B4- | %46
w: da? Con|qué la la- va-|ré, que vi- vo|mal pe- na *|da, mal pe- na-|* * da?|
 B8 |] %47
w: |
V:4
 E,4 G,3 G, | A,2 A,2 A,2 G,2- | G,F,E,D, C,B,, C,2 | !breath!B,,2 B,3 A, A,2 | G,2 E,2 B,4 | %5
w: Con qué la|la- va- ré, la|* * * * * * va-|ré, con qué la|la- va- ré|
 z2 C2 C2 B,C | D2 G,2 A,4 | G,4 z2 B,2 | D2 D2 B,2 B,2 | !breath!G,4 C,D,E,F, | G,2 C,4 C,2 | %11
w: la flor de *|la mi ca-|ra? Con|qué la la- va-|ré que * * *|* vi- vo|
 E,2 D,4 E,2 | B,,4 E,4 | z2 B,2 D2 D2 | B,2 B,2 !breath!G,4 | C,D,E,F, G,2 C,2- | %16
w: mal * pe-|na- da?|Con qué la|la- va- ré|que * * * * vi-|
 C,2 C,2 E,2 D,2 | A,,2 E,2 B,,4 | E,8 || E,4 G,3 G, | A,2 A,2 B,4- | B,4 E,4 | z8 | z4 E,4 | %24
w: * vo mal *|* pe- na-|da?|Là- van- se|las ca- sa-|* das||con|
 G,3 F, E,3 E, | D,2 B,,3 C,D,E, | F,2 E,2 A,,4 | B,,4 E,4 || E,4 G,3 G, | A,2 A,2 A,A, G,2- | %30
w: a * * gua|de li- * * *|* * mo-|* nes.|Là- vo- me|yo cui- ta- da, cui-|
 G,F,E,D, C,B,, C,2 | !breath!B,,2 B,3 A, A,2 | G,2 E,2 B,2 B,2 | z2 C2 C2 B,C | D2 G,2 A,4 | %35
w: * * * * * * ta-|da, là- vo- me|yo cui- ta- da|con pe- nas *|y do- lo-|
 G,4 z2 B,2 | D2 D2 B,2 B,2 | !breath!G,4 C,D,E,F, | G,2 C,4 C,2 | E,2 D,4 E,2 | B,,4 E,4 | %41
w: res. Con|qué la la- va-|ré, que * * *|* vi- vo|mal * pe-|na- da?|
 z2 B,2 D2 D2 | B,2 B,2 !breath!G,4 | C,D,E,F, G,2 C,2- | C,2 C,2 E,2 D,2- | D,2 E,2 B,,4 | E,8 |] %47
w: Con qué la|la- va- ré|que * * * * vi-|* vo mal *|* pe- na-|da?|

